X: 18280
T: Humours Of Scarriff, The
R: reel
M: 4/4
K: Eminor
e3f g2fe|dB (3BBB dBAd|Beef g2fe|dBAF FEE2|^deef g2fe|dB (3BBB dBAd|
Beef (3gag fe|dBAF FE E2||fdad bdad|fdad feeg|fdad bBad|fee2 Beeg|
fdad bdad|fdad feeg|fbba fgfe|dBAF FEE2||

